X: 22657
T: Lake Of Spirits, The
R: jig
M: 6/8
K: Bminor
|:B2 F dcB|e2 e edc|d2 F dcB|ABB ~c2 B|
[1 B2 F dcB|e2 e edc|f2 d edc|dcB ABB:|
[2 B2 F dcB|A2 F ABc|B3B3|z3 z3||
|:B2 B fed|e2 e efg|f2 f fed|e3 d3|
[1 B2 B fed|e2 e edc|~c2 B cde|fed cBA:|
[2 B2 F dcB|A2 F ABc|B3B3|z3 z3||
|:B2 F dcB|e2 e edc|B2 F dcB|ABB ~c2 B:|
B2 F dcB|A2 F ABc|B3B3|z3 z3||

